web/ui/src/components/workflow/workflow-viewer/svgs/task-tool/view-params.svg

<svg fill="none" height="24" viewBox="0 0 24 24" width="24" xmlns="http://www.w3.org/2000/svg"><g fill="#526579"><g clip-rule="evenodd" fill-rule="evenodd"><path d="m3 3c0-1.10457.89543-2 2-2h14c1.1046 0 2 .89544 2 2v9c0 .5523-.4477 1-1 1s-1-.4477-1-1v-9h-14v18h7c.5523 0 1 .4477 1 1s-.4477 1-1 1h-7c-1.10459 0-2-.8955-2-2z"/><path d="m7 8c0-.55228.44772-1 1-1h8c.5523 0 1 .44772 1 1s-.4477 1-1 1h-8c-.55228 0-1-.44772-1-1z"/><path d="m7 12c0-.5523.44772-1 1-1h4c.5523 0 1 .4477 1 1s-.4477 1-1 1h-4c-.55228 0-1-.4477-1-1z"/><path d="m22.5773 17.5001c.3573.6188.3573 1.3812 0 2l-1.6726 2.8972c-.3573.6188-1.0175 1-1.7321 1h-3.3453c-.7145 0-1.3748-.3812-1.732-1l-1.6727-2.8972c-.3572-.6188-.3572-1.3812 0-2l1.6727-2.8971c.3572-.6188 1.0175-1 1.732-1h3.3453c.7146 0 1.3748.3812 1.7321 1zm-1.732 1-1.6727-2.8971h-3.3453l-1.6726 2.8971 1.6726 2.8972h3.3453z"/></g><path d="m17.75 19.75c.6904 0 1.25-.5596 1.25-1.25 0-.6903-.5596-1.25-1.25-1.25-.6903 0-1.25.5597-1.25 1.25 0 .6904.5597 1.25 1.25 1.25z"/></g></svg>

<svg width="24" height="24" viewBox="0 0 24 24" fill="none" xmlns="http://www.w3.org/2000/svg">
<path fill-rule="evenodd" clip-rule="evenodd" d="M3 3C3 1.89543 3.89543 1 5 1H19C20.1046 1 21 1.89544 21 3V12C21 12.5523 20.5523 13 20 13C19.4477 13 19 12.5523 19 12V3H5V21H12C12.5523 21 13 21.4477 13 22C13 22.5523 12.5523 23 12 23H5C3.89541 23 3 22.1045 3 21V3Z" fill="#526579"/>
<path fill-rule="evenodd" clip-rule="evenodd" d="M7 8C7 7.44772 7.44772 7 8 7H16C16.5523 7 17 7.44772 17 8C17 8.55228 16.5523 9 16 9H8C7.44772 9 7 8.55228 7 8Z" fill="#526579"/>
<path fill-rule="evenodd" clip-rule="evenodd" d="M7 12C7 11.4477 7.44772 11 8 11H12C12.5523 11 13 11.4477 13 12C13 12.5523 12.5523 13 12 13H8C7.44772 13 7 12.5523 7 12Z" fill="#526579"/>
<path fill-rule="evenodd" clip-rule="evenodd" d="M22.5773 17.5001C22.9346 18.1189 22.9346 18.8813 22.5773 19.5001L20.9047 22.3973C20.5474 23.0161 19.8872 23.3973 19.1726 23.3973L15.8273 23.3973C15.1128 23.3973 14.4525 23.0161 14.0953 22.3973L12.4226 19.5001C12.0654 18.8813 12.0654 18.1189 12.4226 17.5001L14.0953 14.603C14.4525 13.9842 15.1128 13.603 15.8273 13.603L19.1726 13.603C19.8872 13.603 20.5474 13.9842 20.9047 14.603L22.5773 17.5001ZM20.8453 18.5001L19.1726 15.603L15.8273 15.603L14.1547 18.5001L15.8273 21.3973L19.1726 21.3973L20.8453 18.5001Z" fill="#526579"/>
<path d="M17.75 19.75C18.4404 19.75 19 19.1904 19 18.5C19 17.8097 18.4404 17.25 17.75 17.25C17.0597 17.25 16.5 17.8097 16.5 18.5C16.5 19.1904 17.0597 19.75 17.75 19.75Z" fill="#526579"/>
</svg>
